X: 1
T:An Dro #2
M:4/4
L:1/8
S:Claus Steinort, Ir-Trad, 3/97
R:Reel
N:Session in Doolin: Michael Queally, Noel O'Donoghue, Tola Custy, Cyril
N:O'Donoghue
K:Bm
~f3d Bcdf|efec ~A3c|dcde fagf|e2de f2B2|
~f3d Bcdf|efec ~A3c|dcde fagf|1edcd B3g:|2edcd B4||
B2B2 f2f2|efed c3e|fedc ~B3c|dBcd BAFA|
B2B2 f2f2|efed c3e|fedc ~B3c|1dBcd B3A:|2dBcd B3g|
